X:1
T:Nocturne Op.55 No.1
T:Nocturne
T: Chopin Op. 55 No. 1 
C:Chopin
%%score ( 1 2 3 )
L:1/8
Q:1/4=75
M:4/4
K:F
V:1 bass nm="Trombone" snm="Tbn."
V:2 bass 
V:3 bass 
V:1
!p!"^Gracefully" (A,2- | A,2 D2 C2 B,2 | A,>^G, A,>B, (A,4-) | A,2 D2 C2 B,2 | %4
 A,>^G,{/C} A,>B, (A,4-) | A,2 D2 C2 B,2 | A,4 G,2{^F,G,} A,>B, | =F,4 G,2{^F,G,} A,>B, | %8
 D,4) (A,2 A,2- | A,2 D2 C2 B,2 | A,>^G, A,>B, (A,4-) | A,2 D2 C2 B,2 | A,>^G,{/C} A,>B, (A,4-) | %13
 A,2 D2 C2 B,2 | A,4{/^F,} G,4 |{/^F,G,} (=F,4) F,2 E,>D, | D,4) (F,2 F,2 | %17
 G,2 =B,,C,!<(! D,C,F,G,!<)! | A,4) (A,2 A,2 | =B,2!<(! ^D,E, F,>E, A,B,!<)! | %20
"_dim." ^C4) (D2 C>B, | B,2 A,2) (B,2 A,>G, | G,2 F,2) (E,2{/G,} F,>E, | E,2 E,2) (E,2{/G,} F,>E, | %24
 E,2 A,2) (A,2 !>!A,2- | A,2 D2 C2 B,2 | A,>^G, A,>B, A,4-) | A,2 (3^CED (3=CC,G, (3A,CB, | %28
 (3A,A,,C, (3F,_A,B, =A,4- | A,2 D2 C2 B,2 | A,4{/^F,} G,4 |{/^F,G,} =F,4 F,2 E,>D, | %32
"^optional" z2 (3^G,,A,,B,, (3A,,E,,=G,, (3F,,^C,,E,, | z2"^play on 2" D4 D2 | D2 z2 z4 |] %35
V:2
 x2 | x8 | x8 | x8 | x8 | x8 | x8 | x8 | x8 | x8 | x8 | x8 | x8 | x8 | x8 | x8 | x8 | x8 | x8 | %19
 x8 | x8 | x8 | x8 | x8 | x8 | x8 | x8 | x8 | x8 | x8 | x8 | x8 | z2 z2 z2 z2 | D,,2 x6 | x8 |] %35
V:3
 x2 | x8 | x8 | x8 | x8 | x8 | x8 | x8 | x8 | x8 | x8 | x8 | x8 | x8 | x8 | x8 | x8 | x8 | x8 | %19
 x8 | x8 | x8 | x8 | x8 | x8 | x8 | x8 | x8 | x8 | x8 | x8 | x8 | %32
 D,2 (3^G,A,B, (3A,E,=G, (3F,^C,E, | x8 | x8 |] %35

